app/img/icons/arrow-green.svg

<svg width="40" height="27" viewBox="0 0 40 27" fill="none" xmlns="http://www.w3.org/2000/svg">
<path d="M39.7558 14.0965L27.2558 26.7528C26.9303 27.0824 26.403 27.0824 26.0775 26.7528C25.7519 26.4232 25.7519 25.8892 26.0775 25.5597L37.155 14.3437L0.833358 14.3437C0.372733 14.3437 -1.13944e-06 13.9663 -1.18021e-06 13.5C-1.22098e-06 13.0336 0.372733 12.6562 0.833358 12.6562L37.155 12.6562L26.0775 1.44028C25.7519 1.11066 25.7519 0.576731 26.0775 0.247194C26.2402 0.0824253 26.4535 1.50206e-06 26.6667 1.48342e-06C26.8799 1.46478e-06 27.0931 0.0824253 27.2559 0.247194L39.7559 12.9034C40.0814 13.233 40.0814 13.7669 39.7558 14.0965Z" fill="#8DD094"/>
</svg>

<svg width="40" height="27" fill="none" xmlns="http://www.w3.org/2000/svg"><path d="M39.756 14.097l-12.5 12.656a.826.826 0 01-1.178 0 .85.85 0 010-1.193l11.077-11.216H.833A.838.838 0 010 13.5c0-.466.373-.844.833-.844h36.322L26.077 1.44a.85.85 0 010-1.193.825.825 0 011.179 0l12.5 12.656a.85.85 0 010 1.194z" fill="#8DD094"/></svg>
